X:7018
T:The Light-Tower
R:strathspey
C:Paul S. Cranford
D:The Lighthouse, Cranford Publications
B:The Lighthouse Collection, ISBN 0-9691181-5-5
N:Contacts ...
N:..... Cranford Publications <http://www.cranfordpub.com>
Q:248
O:England
L:1/8
M:C
K:Amix
A>AABAGG<A B>GAAAAB<c|e>cd>B c>AB<c:|
e<aA>c B>G B/c/d|e<ae>c e/f/^g a>c|e<aA>c B>G B/c/d|e>cd>B c>AB<c|
e<aA>c B>G B/c/d|e<ae>c e/f/^g a>c|B>de>c B>G B/c/d|e>cd>B c>AB<c|]
